X:1
T:Herre Utransaka Mig, 76.76 D
T:Herre Utransaka Mig, 76.76 D
T:Gunnar Wennerberg (1817–1901)
T:Public Domain Courtesy of the Cyber Hymnal™
C:Gunnar Wennerberg (1817–1901)
Z:Public Domain
Z:Courtesy of the Cyber Hymnal™
%%score ( 1 2 ) ( 3 4 )
L:1/8
Q:1/4=115
M:4/4
K:Bb
V:1 treble 
V:2 treble 
V:3 bass 
V:4 bass 
V:1
 [DB]2 [CF]2 [B,D]2 [A,F]2 | [B,G]2 [EA]2 [DB]4 | [CF]2 [B,D]2 E2 [B,D]2 | C4 [B,D]2 z2 | %4
 [DB]2 [CF]2 [B,D]2 [CF]2 | [DB]2 [Fc]2 [Fd]4 | [Fc]2 [FA]2 [DB]2 [DA]2 | G4 [CF]2 z2 | %8
 [DF]2 [DF]2 [DB]2 [EG]2 | [EG]2 [D^F]2 [DG]4 | [CF]2 [B,D]2 E2 [B,D]2 | C4 [A,D]2 z2 | %12
 [Fd]2 [Gd]2 [Gc]2 [FA]2 | [FB]2 [EG]2 [CF]4 | [B,D]2 [CF]2 E2 [B,D]2 | C4 B,2 z2 |] %16
V:2
 x8 | x8 | x4 (G,A,) x2 | (B,2 A,2) x4 | x8 | x8 | x8 | (D2 C2) x4 | x8 | x8 | x4 (G,A,) x2 | %11
 (B,2 A,G,) x4 | x8 | x8 | x4 (B,C) x2 | (B,2 A,2) B,2 x2 |] %16
V:3
 [B,,F,]2 [A,,F,]2 [B,,F,]2 D,2 | [G,,D,]2 [F,,F,]2 [B,,F,]4 | %2
 [A,,F,]2 [B,,F,]2 [C,E,]2 ([D,F,][E,G,]) | F,4 [B,,F,]2 z2 | G,2 [F,A,]2 [B,,B,]2 [F,A,]2 | %5
 G,2 [F,A,]2 [B,,B,]4 | [C,A,]2 [D,A,]2 [G,,G,]2 F,2 | (F,2 =E,2) [F,A,]2 z2 | %8
 [B,,B,]2 [D,A,]2 G,2 [E,B,]2 | [C,A,]2 [D,A,]2 [G,,B,]4 | [A,,F,]2 [B,,F,]2 [C,E,]2 [D,F,]2 | %11
 [E,G,]4 [D,^F,]2 z2 | [B,,B,]2 [G,B,]2 [E,C]2 [F,C]2 | [D,B,]2 [E,B,]2 [F,A,]4 | %14
 [B,,B,]2 [A,,F,]2 G,2 [B,,F,]2 | [F,,F,]4 [B,,D,]2 z2 |] %16
V:4
 x6 D,2 | x8 | x8 | F,4 x4 | G,2 x6 | G,2 x6 | x6 (A,,B,,) | C,4 x4 | x4 G,2 x2 | x8 | x8 | x8 | %12
 x8 | x8 | x4 (G,,A,,) x2 | x8 |] %16

